X: 7
T:Chief O'Neill's Favourite
M:4/4
L:1/8
R:Hornpipe
K:D
de[|:fefg afge|fdec dcAG|F2DE FGAB|=cAdc A2de|!
fefg afge|fdec dcAG|FDAF GBAG|1F2D2 D2de:|2F2D2 D2DE|!
|:=F3E FGAB|=cAdB cBGB|Adde fded|=cAdc A2de|!
fefg afge|fdec dcAG|FDAF GBAG|1F2D2 D2DE:|2F2D2 D2de|]!
